build/img/icon/icon_advantages_70.svg

<svg width="67" height="53" viewBox="0 0 67 53" fill="none" xmlns="http://www.w3.org/2000/svg">
<path d="M30.8999 7.17432L14.9526 52H4.58691L20.6035 9.67041H0.357422V1.52344H30.8999V7.17432ZM66.5386 31.1299C66.5386 38.1097 65.2674 43.4486 62.7251 47.1465C60.2059 50.8444 56.6004 52.6934 51.9087 52.6934C47.2632 52.6934 43.6693 50.9022 41.127 47.3198C38.6077 43.7144 37.3019 38.5604 37.2095 31.8579V22.3242C37.2095 15.3675 38.4691 10.0518 40.9883 6.37695C43.5075 2.67904 47.1245 0.830078 51.8394 0.830078C56.5542 0.830078 60.1712 2.65592 62.6904 6.30762C65.2096 9.95931 66.4924 15.1711 66.5386 21.9429V31.1299ZM56.6929 20.9028C56.6929 16.9276 56.3 13.9461 55.5142 11.9585C54.7284 9.97087 53.5034 8.97705 51.8394 8.97705C48.7192 8.97705 47.1014 12.6172 46.9858 19.8975V32.4819C46.9858 36.5496 47.3787 39.5773 48.1646 41.5649C48.9735 43.5526 50.2215 44.5464 51.9087 44.5464C53.5034 44.5464 54.6821 43.6219 55.4448 41.7729C56.2306 39.9009 56.6466 37.0465 56.6929 33.21V20.9028Z" fill="url(#paint0_linear)"/>
<defs>
<linearGradient id="paint0_linear" x1="-2" y1="3" x2="29.023" y2="62.4222" gradientUnits="userSpaceOnUse">
<stop stop-color="#D10A42"/>
<stop offset="1" stop-color="#0041CA"/>
</linearGradient>
</defs>
</svg>

<svg width="67" height="53" fill="none" xmlns="http://www.w3.org/2000/svg"><path d="M30.9 7.174L14.953 52H4.587L20.604 9.67H.357V1.523H30.9v5.651zM66.539 31.13c0 6.98-1.272 12.319-3.814 16.017-2.52 3.697-6.125 5.546-10.816 5.546-4.646 0-8.24-1.79-10.782-5.373-2.52-3.606-3.825-8.76-3.918-15.462v-9.534c0-6.957 1.26-12.272 3.78-15.947C43.507 2.679 47.124.83 51.838.83c4.715 0 8.332 1.826 10.851 5.478 2.52 3.651 3.802 8.863 3.849 15.635v9.187zm-9.846-10.227c0-3.975-.393-6.957-1.179-8.944-.786-1.988-2.01-2.982-3.675-2.982-3.12 0-4.738 3.64-4.853 10.92v12.585c0 4.068.393 7.095 1.179 9.083.809 1.988 2.056 2.981 3.744 2.981 1.594 0 2.773-.924 3.536-2.773.786-1.872 1.202-4.727 1.248-8.563V20.903z" fill="url(#paint0_linear)"/><defs><linearGradient id="paint0_linear" x1="-2" y1="3" x2="29.023" y2="62.422" gradientUnits="userSpaceOnUse"><stop stop-color="#D10A42"/><stop offset="1" stop-color="#0041CA"/></linearGradient></defs></svg>
